!!!!SEGMENT: pl-wumfc--r313--005_paderewski-ignacy-jan--nie-bede-cie-rwala.krn
!!!cenid: 18xx:3390
!!!COM: Paderewski, Ignacy Jan
!!!COM-rismID: pe30029943
!!!CDT: 1860/11/18-1941/06/29
!!!CNT: Polish
!!!OTL: Nie będę cię rwała
!!!OMV: 005
!!!PDT:
!!!AGN:
!!!SMS-siglum: PL-Wumfc
!!!SMS-shelfmark: R313
!!!SMS-shelfwork: 001-005 W
!!!SMS-variant:
!!!SMS-altvar:
!!!NIFC-rismSourceID: 1001159534
!!!NIFC-rismChildID: 1001204625
!!!NIFC-islandoraID: pl-wumfc:730
!!!URL-pdf-islandora: https://repozytorium.nifc.pl/islandora/object/pl-wumfc%3A730/datastream/PDF/view
!!!URL-scan: https://polish.musicsources.pl/pl/lokalizacje/galeria/rekopisy/4734 @EN{Scan on Polish Music Sources Website} @PL{Skany w portalu Dziedzictwo Muzyki Polskiej w otwartym dostępie}
!!!IIIF:
!!!ONB-nifc: UWAGA: od skanu 0008, pieśń nienumerowana
!!!AIN: 1 piano 1 soprn
!!!key: A
!!!OMD: allegretto giacoso.
!!!OMD: Allegretto giocoso
!!!filter-modern: sic -sq | shed -e "s/TX(.*):t=P:/tx$1:t=P:/LG" | shed -e "s/:rj/:RJ/L" | shed -k -e "s/:TUP:/:tup:/L" | shed -k -e "s/([^a-gA-Gn#X-])[<>]/$1/g" | shed -e "s/LO:DY:(a|b|rj)/LO:dy:$1/L" | shed -e "s/-//B" | modori -m | humtr -p | autostem -r
**kern	**kern	**dynam	**fing	**kern	**text	**text	**text	**text
*	*	*	*	*	*	*	*v:1	*v:2
*group2	*group2	*	*	*group1	*	*	*	*
*part2	*part2	*part2	*	*part1	*part1	*part1	*part1	*part1
*staff3	*staff2	*	*	*staff1	*staff1	*staff1	*staff1	*staff1
*I"[Piano]	*I"[Piano]	*	*	*I"[Soprano]	*	*	*	*
*I'	*I'	*	*	*I'	*	*	*	*
*Ipiano	*Ipiano	*	*	*Isoprn	*	*	*	*
*ICklav	*ICklav	*	*	*ICvox	*	*	*	*
*IGacmp	*IGacmp	*	*	*IGsolo	*	*	*	*
*mI"Pianoforte	*mI"Pianoforte	*	*	*mI"Voce	*	*	*	*
*mI'pf	*mI'pf	*	*	*mI'V	*	*	*	*
*clefF4	*clefG2	*	*	*clefG2	*	*	*	*
*k[f#c#g#]	*k[f#c#g#]	*	*	*k[f#c#g#]	*	*	*	*
*A:	*A:	*	*	*A:	*	*	*	*
*M2/4	*M2/4	*	*	*M2/4	*	*	*	*
*>[A,B,B1,B,B2,C]	*>[A,B,B1,B,B2,C]	*	*	*>[A,B,B1,B,B2,C]	*	*	*	*
=1	=1	=1	=1	=1	=1	=1	=1	=1
*>A	*>A	*	*	*>A	*	*	*	*
8r	4aa~>\	.	.	2r	.	.	.	.
4AA\ 4E\	.	.	.	.	.	.	.	.
.	4gg#~>\	.	.	.	.	.	.	.
8E\ 8B\ 8e\	.	.	.	.	.	.	.	.
=2	=2	=2	=2	=2	=2	=2	=2	=2
8r	(>16ee\LL	.	.	2r	.	.	.	.
.	16gg#\	.	.	.	.	.	.	.
8AA\ 8E\	16ff#\	.	.	.	.	.	.	.
.	16dd\JJ	.	.	.	.	.	.	.
8r	4cc#\)	.	.	.	.	.	.	.
8E\ 8A\ 8e\	.	.	.	.	.	.	.	.
=3	=3	=3	=3	=3	=3	=3	=3	=3
8r	4ee~>\	.	.	2r	.	.	.	.
8AA\ 8E\	.	.	.	.	.	.	.	.
8r	4dd~>\	.	.	.	.	.	.	.
8F#\ 8A\ 8d\	.	.	.	.	.	.	.	.
=4	=4	=4	=4	=4	=4	=4	=4	=4
8r	(>16b\LL	.	.	2r	.	.	.	.
.	16dd\	.	.	.	.	.	.	.
8AA\ 8E\ 8G#\	16cc#\	.	.	.	.	.	.	.
.	16e\JJ	.	.	.	.	.	.	.
8r	4a/)	.	.	.	.	.	.	.
8E\ 8A\ 8c#\	.	.	.	.	.	.	.	.
=5!|:	=5!|:	=5!|:	=5!|:	=5!|:	=5!|:	=5!|:	=5!|:	=5!|:
*>B	*>B	*	*	*>B	*	*	*	*
!	!	!	!	!LO:TX:a:t=Paderewski:mod=	!	!	!	!
[<2AAA\ [>2AA\	8E</L 8c#</ 8e/	.	.	8cc#\	Nie	Pó-	Wer-	ſeit
.	8E</ 8c#</ 8e/	.	.	8cc#\	bę-	-kąd	-de	er
.	8E</ 8d</ 8e/	.	.	8b\	-dę	mi	dich	fern
.	8E</J 8d</ 8e/	.	.	8b\	Cię	przy-	nicht	ge-
!!LO:LB:g=original
=6	=6	=6	=6	=6	=6	=6	=6	=6
4AAA\] 4AA]	8E</L 8c#/ 8e/	.	.	4.ee\	rwa-	-je-	pflü-	-blie-
.	8E</ 8c#/ 8e/	.	.	.	.	.	.	.
4EE\	8E</ 8B/ 8e/	.	.	.	.	.	.	.
!	!	!	!	!	!	!	!LO:MO:mod=-cken	!
.	8E</J 8B/ 8e/	.	.	8dd\	-ła	-dzie	-cKen,	-ben,
=7	=7	=7	=7	=7	=7	=7	=7	=7
4AA\	8E</L 8c#/ 8e/	.	.	8cc#\	Kon-	Nic	mich	muſs
.	8E</ 8c#/ 8e/	.	.	8cc#\	-wa-	mi	mit	ich
4EE\	8G#</ 8B/ 8e/	.	.	8b\	-lij-	się	dòr	mich
.	8G#</J 8B/ 8e/	.	.	8b\	-ko	nie	nicht	be-
=8	=8	=8	=8	=8	=8	=8	=8	=8
4BB\	8F#</L 8B/ 8d/	.	.	8dd\	bia-	wie-	schmüc-	-trü-
!	!	!	!	!	!	!	!LO:MO:mod=-ken,	!
.	8F#</ 8B/ 8d/	.	.	8cc#,>\	-ła.	-dzie	-Ken,	-ben,
4BBB\ 4BB\	8F#</ 8d/ 8f#/	.	.	8b/	Bo-	Bo	weiſ-	wir
.	8F#</J 8d/ 8f#/	.	.	8a/	-byś	wziąć	-se	ich
=9	=9	=9	=9	=9	=9	=9	=9	=9
!	!	!	!	!	!LO:MO:mod=tyl-	!	!	!
4EE\	8G#</L 8d/ 8e/	.	.	8g#/	ty	ty-	Me-	denk
.	8G#</ 8d/ 8e/	.	.	8f#/	na	-lko	-ien	bes-
!	!	!	!	!	!LO:MO:mod=myś-	!	!	!
4E^<<\	8A</ 8c#/ 8e/	.	.	8e/	mo-	my-	blu-	-lein-
.	8A</J 8c#/ 8e/	.	.	8a/	-ję,	-ślę	-me,	-dig
!!LO:PB:g=original
=10	=10	=10	=10	=10	=10	=10	=10	=10
4EE\	8G#</L 8d/ 8e/	.	.	8g#/	Pło-	O	duf-	an
.	8G#</J 8d/ 8e/	.	.	8f#/	-chość	mło-	-tig	den
4E\	8A</L 8c#/ 8e/	.	.	8e/	na-	-dym	zum	lieb-
.	8c#</J 8e/ 8a/	.	.	8cc#\	-rze-	są-	Ent-	-sten
=11	=11	=11	=11	=11	=11	=11	=11	=11
*^	*	*	*	*	*	*	*	*
2E/	(>8BB\L	(<4.g#/ (>4.dd/	<	.	4.dd\	-ka-	-sie-	-zü-	Lie-
.	8EE\	.	.	.	.	.	.	.	.
.	8BB\	.	[	.	.	.	.	.	.
.	8AA#X\J)	8f##X/) 8cc#/)	.	.	8cc#\	.	.	.	.
=12	=12	=12	=12	=12	=12	=12	=12	=12	=12
[>2E/	(>8BB\L	4.g#/ 4.dd/	.	.	(>4.dd\	.	.	.	.
.	8EE\	.	<	.	.	.	.	.	.
!	!	!	!LO:MO:mod=[[	!	!	!	!	!	!
.	8BB\	.	[	.	.	.	.	.	.
.	8AA#X\J)	8f##X/ 8cc#/	.	.	8cc#\	.	.	.	.
=13	=13	=13	=13	=13	=13	=13	=13	=13	=13
8E/]	8BB\	4.g#/ 4.dd/	.	.	4.dd\)	.	.	.	.
(8E\L	4.ryy	.	<	.	.	.	.	.	.
!	!	!	!LO:MO:mod=[[	!	!	!	!	!	!
8B\	.	.	[	.	.	.	.	.	.
8A#X\J)	.	8f##X/ 8cc#/	.	.	8e/	-ła.	-dzie	-cken!	-ben.
*v	*v	*	*	*	*	*	*	*	*
!!LO:LB:g=original
=14	=14	=14	=14	=14	=14	=14	=14	=14
8B\L	4.g#\ 4.dd\	<	.	2r	.	.	.	.
(>8E\	.	.	.	.	.	.	.	.
8B\	.	.	.	.	.	.	.	.
8B#X\J)	8a\ 8dd#X\	[[	.	.	.	.	.	.
=15	=15	=15	=15	=15	=15	=15	=15	=15
(>8c#\L	(>8a\L 8ee\	.	.	2r	.	.	.	.
8A\	8e\J 8cc#\	.	.	.	.	.	.	.
8F#\	8d/L 8a/	.	.	.	.	.	.	.
8BB\J)	8A/J) 8f#/ 8a/	>	.	.	.	.	.	.
=16	=16	=16	=16	=16	=16	=16	=16	=16
4E\	8G#</L 8d/ 8e/	.	.	2r	.	.	.	.
.	8G#</ 8d/ 8e/	.	.	.	.	.	.	.
4EE\	8G#</ 8d/ 8g#/	]	.	.	.	.	.	.
.	8G#</J 8d/ 8f#/	.	.	.	.	.	.	.
=17	=17	=17	=17	=17	=17	=17	=17	=17
[<2AAA\ [>2AA\	8E</L 8c#/ 8e/	.	.	8cc#\	My-	I	Mög-	Bin
.	8E</ 8c#/ 8e/	.	.	8cc#\	-śla-	wszyst-	-lich	nach
.	8E</ 8d/ 8e/	.	.	8b\	-ła-	-ko	wohl,	ihm
.	8E</J 8d/ 8e/	.	.	8b\	-byś	mnie	In	voll
!!LO:LB:g=original
=18	=18	=18	=18	=18	=18	=18	=18	=18
4AAA\] 4AA\]	8E</L 8c#/ 8e/	.	.	4.ee\	so-	nu-	klei-	Ban-
.	8E< 8c#/ 8e/	.	.	.	.	.	.	.
4EE\	8E</ 8B/ 8e/	.	.	.	.	.	.	.
.	8E</J 8B/ 8e/	.	.	8dd\	-bie,	-dzi	-ne,	-gen
=19	=19	=19	=19	=19	=19	=19	=19	=19
4AA\	8E</L 8c#/ 8e/	.	.	8cc#\	Że	U-	veiss	ein-
.	8E</ 8c#/ 8e/	.	.	8cc#\	to	-cie-	ich	-sam
!	!	!	!	!	!	!	!	!LO:MO:mod=hein-
4EE\	8G#</ 8B/ 8e/	.	.	8b\	na	-kam	pflü-	he(i)n-
.	8G#</J 8B/ 8e/	.	.	8b\	złość	od	-ckend	-ge-
=20	=20	=20	=20	=20	=20	=20	=20	=20
2BB\	8G#</L 8B/ 8d/	.	.	8dd\	ro-	lu-	schei-	-gan-
.	8G#</J 8B/ 8d/	.	.	8cc#,>\	-bię.	-dzi	-ne	-gen,
.	8G#</L 8d/ 8f#/	.	.	8b\	Ro-	Na-	vol-	auch
.	8G#</J 8d/ 8f#/	.	.	8a/	-śnij	-wet	-ler	sie
=21	=21	=21	=21	=21	=21	=21	=21	=21
4C#\	8G#</L 8c#/ 8e#X/	.	.	8g#/	więc	zry-	Trotz	Blu-
.	8G#</J 8c#/ 8e#/	.	.	8e#X/	szczę-	-wać	und	-men
!	!	!	!	!	!	!LO:MO:mod=kwiaLO:MO:mod=-	!	!
4FF#\	8A</L 8c#/ 8f#/	.	.	8f#/	-śli-	Kwia-	zeich-	pflü-
.	8A</J 8c#/ 8f#/	.	.	8a/	-wie	-ty	-tsinn ;	-cken
!!LO:LB:g=original
=22	=22	=22	=22	=22	=22	=22	=22	=22
4C#\	8c#/L 8e#X/ 8g#/	.	.	8g#/	Ga-	chęt-	drum	kannst
.	8c#/J 8e#/ 8g#/	.	.	8e#X/	-jom	-ka	bleib-	mir
4D\	8A/L 8d/ 8f#/	.	.	8f#/	ku	się	-stehn	kein
.	8d/J 8f#/ 8a/	.	.	8a/	o-	nie	im	Ver-
=23	=23	=23	=23	=23	=23	=23	=23	=23
*^	*	*	*	*	*	*	*	*
2AA/	8AA\L	(<4.e^>/ (>4.cc#/	.	.	(>4.cc#\	-zdo-	bu-	Hai-	-tan-
.	8AAA\	.	.	.	.	.	.	.	.
.	8EE\	.	.	.	.	.	.	.	.
.	8DD\J	8fn/) 8b/)	.	.	8b\	.	.	.	.
=24	=24	=24	=24	=24	=24	=24	=24	=24	=24
4AA/	8AAA\L 8AA\	(<4.e^>/ (>4.cc#/	.	.	4.cc#\	.	.	.	.
.	8EE\	.	<	.	.	.	.	.	.
!	!	!	!LO:MO:mod=[[	!	!	!	!	!	!
4AA/	8AA\	.	[	.	.	.	.	.	.
.	8DD\J	8fn/) 8b/)	.	.	8b\	.	.	.	.
*v	*v	*	*	*	*	*	*	*	*
=25	=25	=25	=25	=25	=25	=25	=25	=25
8AAA\L	[<2e/ [>2cc#/	.	.	4.cc#\)	.	.	.	.
(>8EE\	.	.	.	.	.	.	.	.
8AA\)	.	.	.	.	.	.	.	.
8AA\J	.	.	.	8a/	-bie.	-dzi	-ne	-gen
!!LO:PB:g=original
=26	=26	=26	=26	=26	=26	=26	=26	=26
8C#\L	4e/] 4cc#/]	.	.	2r	.	.	.	.
8E\	.	.	.	.	.	.	.	.
8A\	4r	.	.	.	.	.	.	.
8c#\J	.	.	.	.	.	.	.	.
=27	=27	=27	=27	=27	=27	=27	=27	=27
2r	8d#X/L	.	.	2r	.	.	.	.
.	8e/	.	.	.	.	.	.	.
.	8a/	.	.	.	.	.	.	.
.	8b#X/J	.	.	.	.	.	.	.
=28	=28	=28	=28	=28	=28	=28	=28	=28
2r	8cc#\L	.	.	2r	.	.	.	.
.	8dd#X\J	.	.	.	.	.	.	.
.	(<8qff#/	.	.	.	.	.	.	.
.	16ee\LL)	.	.	.	.	.	.	.
.	(>16dd#\	.	.	.	.	.	.	.
.	16ee\	.	.	.	.	.	.	.
.	16ff#\JJ)	.	.	.	.	.	.	.
=29	=29	=29	=29	=29	=29	=29	=29	=29
8r	4gg#~>\	.	.	8r	.	.	.	.
!	!	!	!	!LO:TX:t=P:problem=od taktu 29 niemiecki tekst drugiej zwrotki zapisany poniżej górnego planu akompaniamentu	!	!	!	!
4CC#\ 4GG#\	.	.	.	4g#/	Nie	mo-	Wer	Blu-
.	4ff#~>\	.	.	.	.	.	.	.
8CC#\ 8GG#\	.	.	.	8g#/	mam	-żesz	ist,	-me,
!!LO:LB:g=original
=30	=30	=30	=30	=30	=30	=30	=30	=30
8r	(>16dd#X\LL	.	.	8a/	ja	więc	ver	sei
.	16ff#\	.	.	.	.	.	.	.
4CC#'>\ 4GG#	16eeM>\	.	.	8g#/	dziś	w spo-	sich	ge-
.	16b\JJ	.	.	.	.	.	.	.
.	4cc#\)	.	.	8cc#/	ko-	-ko-	heu-	-mie-
8G#\	.	.	.	(>16b/LL	-mu	-ju	-te	-den,
.	.	.	.	16a/JJ)	.	.	.	.
=31	=31	=31	=31	=31	=31	=31	=31	=31
8G#\L 8f#\	16a/LL 16cc#/ 16dd#X/	.	.	8g#/	kwia-	Ros-	sol-	bleib
.	16ee/	.	.	.	.	.	.	.
8G#\J 8f#\	16a/ 16cc#/ 16dd#/	.	.	8g#/	-ty,	-nąć	-chen	am
.	16ee/JJ	.	.	.	.	.	.	.
8G#\L 8e\	16g#/LL 16cc#/	.	.	8.e/	nieść	tu	Blüm-	Born
.	16gg#/	.	.	.	.	.	.	.
8G#\J 8e\	16g#/ 16cc#/	.	.	.	.	.	.	.
.	16gg#/JJ	.	.	16f#/	do	przy	-chens	in
=32	=32	=32	=32	=32	=32	=32	=32	=32
8G#\L 8f#\	16a/LL 16cc#/ 16dd#X/	.	.	8g#/	do-	zdro-	freu-	Frie-
.	16ee/	.	.	.	.	.	.	.
8G#\J 8f#\	16a/ 16cc#/ 16dd#/	.	.	8g#/	-mu	-ju	-de,	-den,
.	16ee/JJ	.	.	.	.	.	.	.
8G#\L 8e\	16g#/LL 16cc#/	.	.	4r	.	.	.	.
.	16gg#/	.	.	.	.	.	.	.
8G#\J 8e\	16g#/ 16cc#/	.	.	.	.	.	.	.
.	16gg#/JJ	.	.	.	.	.	.	.
=33	=33	=33	=33	=33	=33	=33	=33	=33
8r	4ff#^>\	.	.	8r	.	.	.	.
4BBB\ 4GG#\	.	.	.	4f#/	Nikt,	Dziś	der`s	Nim-
.	4ee^>\	.	.	.	.	.	.	.
8BBB\ 8FF#\	.	.	.	8f#/	mi	mi	mir	-mer
!!LO:LB:g=original
=34	=34	=34	=34	=34	=34	=34	=34	=34
8r	(16cc#\LL	.	.	8gn/	ich	mie	ans	ist
.	16ee\	.	.	.	.	.	.	.
4BBB\ 4FF#\	16ddw\	.	.	8f#/	nie	nie	dem	mir
.	16f#\JJ	.	.	.	.	.	.	.
!	!LO:SIC:s=4b)	!	!	!	!	!	!	!
.	4b/)	.	.	8b/	wyj-	przyj-	Hau-	heu-
!	!	!	!	!	!	!	!	!
8F#\	.	.	.	(>16a/LL	-mie	-dzie	-re	-te
.	.	.	.	16g/JJ)	.	.	.	.
=35	=35	=35	=35	=35	=35	=35	=35	=35
!	!	!	!	!	!LO:MO:mod=z wło-	!LO:MO:mod=z kwie-	!	!
8F#\L 8e\	16gn/LL 16a#X/ 16cc#/	.	.	8f#/	Z Wło-	z Kwie-	hein-	Blu-
.	16dd/	.	.	.	.	.	.	.
8F#\J 8e\	16g/ 16a#/ 16cc#/	.	.	8f#/	-sów	-ci-	-lich	-mens
.	16dd/JJ	.	.	.	.	.	.	.
8F#\L 8d\	16f#/LL 16b/	.	.	8d/	po-	-ste-	zög`	schmuck
.	16ff#/	.	.	.	.	.	.	.
8F#\J 8d\	16f#/ 16b/	.	.	8e/	-kry-	-go	als	be-
.	16ff#/JJ	.	.	.	.	.	.	.
=36	=36	=36	=36	=36	=36	=36	=36	=36
8F#\L 8e\	16gn/LL 16a#X/ 16cc#/	.	.	4.f#/	-jo-	stro-	Ben-	-schie-
.	16dd/	.	.	.	.	.	.	.
8F#\J 8e\	16g/ 16a#/ 16cc#/	.	.	.	.	.	.	.
.	16dd/JJ	.	.	.	.	.	.	.
8F#\L 8d\	16f#/LL 16b/	.	.	.	.	.	.	.
.	16ff#/	.	.	.	.	.	.	.
8F#\J 8d\	16f#/ 16b/	.	.	8f#/	-mu	-ju	-te	-den.
.	16ff#/JJ	.	.	.	.	.	.	.
=37	=37	=37	=37	=37	=37	=37	=37	=37
*	*	*	*^	*	*	*	*	*
!LO:MO:null:mod=*ped	!LO:MO:null:mod=.	!	!	!	!	!	!	!	!
*	*ped	*	*	*	*	*	*	*	*
N(>16BB\LL	8.ryy	.	.	.	4r	.	.	.	.
16F#\	.	.	.	.	.	.	.	.	.
16B\JJ	.	.	.	.	.	.	.	.	.
16r	16d/LL	.	.	2	.	.	.	.	.
4r	16f#/	.	.	3	[<4f#/	nie	Lecz	Nach	Dach
.	16b/	.	.	1	.	.	.	.	.
.	16dd/	.	.	.	.	.	.	.	.
.	16ff#/JJN)	.	.	.	.	.	.	.	.
*	*	*	*v	*v	*	*	*	*	*
!!LO:LB:g=original
=38	=38	=38	=38	=38	=38	=38	=38	=38
2r	(>16bb\LL	.	.	8f#/]	.	.	.	.
.	16ff#\	.	.	.	.	.	.	.
.	16dd\	.	.	8b\	ma	gdy	vers	komt
.	16b\JJ	.	.	.	.	.	.	.
.	16dd\LL	.	.	8cc#\	już	wró-	ſohn	er,
.	16ff#\	.	.	.	.	.	.	.
.	16bb\	.	.	8dd\	są-	-ci	ist	mein
.	16ddd\JJ)	.	.	.	.	.	.	.
=39	=39	=39	=39	=39	=39	=39	=39	=39
2r	16ggg#\LL	.	.	[2cc#\	-sia-	lu-	fer-	Le-
.	(>16fff#\	.	.	.	.	.	.	.
.	16ddd\	.	.	.	.	.	.	.
.	16bb\JJ	.	.	.	.	.	.	.
.	16gg#\LL	.	.	.	.	.	.	.
.	16ff#\	.	.	.	.	.	.	.
.	16dd\	.	.	.	.	.	.	.
.	16b\JJ	.	.	.	.	.	.	.
=40	=40	=40	=40	=40	=40	=40	=40	=40
2r	16g#/LL	.	.	4cc#\]	.	.	.	.
.	16f#/	.	.	.	.	.	.	.
.	16d/	.	.	.	.	.	.	.
.	16B/JJ	.	.	.	.	.	.	.
.	16g#/LL	.	.	4b\	-da	-by	-ne,	-ben,
.	16f#/	.	.	.	.	.	.	.
.	16d/	.	.	.	.	.	.	.
!LO:MO:null:mod=*Xped	!LO:MO:null:mod=.	!	!	!	!	!	!	!
*	*Xped	*	*	*	*	*	*	*
.	16B/JJ)	.	.	.	.	.	.	.
=41	=41	=41	=41	=41	=41	=41	=41	=41
N(>16AA\LL	8.ryy	.	.	4r	.	.	.	.
!LO:MO:null:mod=*ped	!LO:MO:null:mod=.	!	!	!	!	!	!	!
*	*ped	*	*	*	*	*	*	*
16F#\	.	.	.	.	.	.	.	.
16B\JJ	.	.	.	.	.	.	.	.
16r	16d/LL	.	.	.	.	.	.	.
4r	16f#/	.	.	[<4f#/	Co	Ze	der	mir
.	16b/	.	.	.	.	.	.	.
.	16dd/	.	.	.	.	.	.	.
.	16ff#/JJN)	.	.	.	.	.	.	.
!!LO:PB:g=original
=42	=42	=42	=42	=42	=42	=42	=42	=42
2r	16bb\LL	.	.	8f#/]	.	.	.	.
.	(>16ff#\	.	.	.	.	.	.	.
!	!	!	!	!	!LO:MO:mod=kwia-	!	!	!
.	16dd\	.	.	8b\	Kwia-	mną	stahl	die
.	16b\JJ	.	.	.	.	.	.	.
.	16dd\LL	.	.	8cc#\	-ty	za-	Blu-	Hanz
.	16ff#\	.	.	.	.	.	.	.
.	16bb\	.	.	8dd\	wy-	-wrzeć	-men	zu
.	16ddd\JJ	.	.	.	.	.	.	.
=43	=43	=43	=43	=43	=43	=43	=43	=43
2r	16ggg#\LL	.	.	[>2cc#\	-kra-	ślu-	ger-	ge-
.	16fff#\	.	.	.	.	.	.	.
.	16ddd\	.	.	.	.	.	.	.
.	16bb\JJ	.	.	.	.	.	.	.
.	16gg#\LL	.	.	.	.	.	.	.
.	16ff#\	.	.	.	.	.	.	.
.	16dd\	.	.	.	.	.	.	.
.	16b\JJ	.	.	.	.	.	.	.
=44	=44	=44	=44	=44	=44	=44	=44	=44
2r	16g#/LL	.	.	4cc#\]	.	.	.	.
.	16f#/	.	.	.	.	.	.	.
.	16d/	.	.	.	.	.	.	.
.	16B/JJ	.	.	.	.	.	.	.
.	16g#/LL	.	.	4b\	-da	-by	-ne	-ben,
.	16f#/	.	.	.	.	.	.	.
.	16d/	.	.	.	.	.	.	.
.	16B/JJ	.	.	.	.	.	.	.
=45	=45	=45	=45	=45	=45	=45	=45	=45
*>B1	*>B1	*	*	*>B1	*	*	*	*
!!LO:TX:a:t=1a:mod=
2r	16g#/LL	.	.	2r	.	.	.	.
.	16f#/	.	.	.	.	.	.	.
.	16d/	.	.	.	.	.	.	.
.	16B/JJ	.	.	.	.	.	.	.
.	16g#/LL	.	.	.	.	.	.	.
.	16f#/	.	.	.	.	.	.	.
.	16d/	.	.	.	.	.	.	.
.	16B/JJ)	.	.	.	.	.	.	.
!!LO:LB:g=original
=46	=46	=46	=46	=46	=46	=46	=46	=46
8GG#'>\L	8B'>/L 8d/ 8f#/	.	.	8dd\	Zdra-	1) Ich,	.	.
8GG#'>\	8B'>/ 8d/ 8f#/	.	.	8cc#\	-dziec-	den	.	.
8GG#'>\	8B'>/ 8d/ 8f#/	.	.	8b\	-ki	bä-	.	.
8GG#'>\J	8B'>/J 8d/ 8f#/	.	.	8a/	to	-sen	.	.
=47	=47	=47	=47	=47	=47	=47	=47	=47
8C#\L	8B/L 8d/ 8e#X/	.	.	8g#/	chło-	Jun-	.	.
8C#\	8B/ 8d/ 8e#/	.	.	8e#X/	-piec	-gen	.	.
!!LO:TX:t=volta:dur=9q:ext=ud:problem:text with extention lines:mod=
8FF#\	8A/ 8c#/ 8f#/	.	.	8f#/	a-	hab	.	.
8FF#\J	8A/J 8c#/ 8f#/	.	.	8a/	-le	ich	.	.
=48	=48	=48	=48	=48	=48	=48	=48	=48
8C#\L	8B/L 8d/ 8e#X/	.	.	8g#/	słod-	herz-	.	.
8C#\	8B/ 8d/ 8e#/	.	.	8e#X/	-ka	-lich	.	.
8FF#\	8A/ 8c#/ 8f#/	.	.	8f#/	zdra-	ger-	.	.
8FF#\J	8A/J 8c#/ 8f#/	.	.	8a/	-da	-ne,	.	.
=49	=49	=49	=49	=49	=49	=49	=49	=49
*^	*	*	*	*	*	*	*	*
8CC#'>\L	4ryy	4.G#<^>/ 4.c#/ 4.e#X/	.	.	4.cc#\	słod-	herz-	.	.
8GG#\	.	.	.	.	.	.	.	.	.
8C#\	4C#/	.	.	.	.	.	.	.	.
!	!	!	!	!	!	!LO:MO:mod=-ka	!	!	!
8AA\J	.	8F#</ 8d#X/ 8f#/	.	.	8b#X\	-Ka	-lich	.	.
!!LO:LB:g=original
=50	=50	=50	=50	=50	=50	=50	=50	=50	=50
!	!	!	!	!	!	!	!	!	!
8CC#\L	4ryy	4.E#X</ 4.c#/ 4.e#X/	.	.	4.cc#\	zdra-	her-	.	.
8GG#\	.	.	.	.	.	.	.	.	.
8C#\	4C#/	.	.	.	.	.	.	.	.
8AA\J	.	8F#</ 8d#X/ 8f#/	.	.	8b#X\	.	.	.	.
*v	*v	*	*	*	*	*	*	*	*
=51	=51	=51	=51	=51	=51	=51	=51	=51
(>8CC#\L	2E#X</ 2c#/ 2e#X/	.	.	4.cc#\	.	.	.	.
8GG#\J	.	.	.	.	.	.	.	.
4C#\)	.	.	.	.	.	.	.	.
.	.	.	.	8b#X\	-da	-ne.	.	.
=52:|!	=52:|!	=52:|!	=52:|!	=52:|!	=52:|!	=52:|!	=52:|!	=52:|!
*>B2	*>B2	*	*	*>B2	*	*	*	*
!	!	!	!	!LO:TX:t=P:problem=brak oznaczeia drugiej volty	!	!	!	!
8GG#\L	8B/L 8d/	.	.	8dd\	Wte-	2) Dann,	.	.
8GG#\	8B/ 8d/	.	.	8cc#\	-dy	du	.	.
8GG#\	8B/ 8d/	.	.	8b\	kon-	Mai-	.	.
8FF#\J	8A/J 8d/	.	.	(<8a/	.	.	.	.
=53	=53	=53	=53	=53	=53	=53	=53	=53
4EE\	8G#/L 8d/ 8e/	.	.	8g#/	.	.	.	.
.	8G#/ 8d/ 8e/	.	.	8f#/)	-wa-	-en	.	.
4E\	8A/ 8c#/ 8e/	.	.	8e/	-lij-	blu-	.	.
.	8A/J 8c#/ 8e/	.	.	8a/	-ko	-me,	.	.
!!LO:LB:g=original
=54	=54	=54	=54	=54	=54	=54	=54	=54
4EE\	8G#/L 8d/ 8e/	.	.	8g#/	Już	musst	.	.
.	8G#/J 8d/ 8e/	.	.	8f#/	nie	du	.	.
4E\	8A/L 8c#/ 8e/	.	.	8e/	uj-	dich	.	.
.	8c#/J 8e/ 8a/	.	.	8a/	-dziesz	er-	.	.
=55	=55	=55	=55	=55	=55	=55	=55	=55
*^	*	*	*	*	*	*	*	*
2E/	8BB\L	4.g#\ 4.dd\	.	.	4.dd\	zgu-	-ge-	.	.
.	8EE\	.	.	.	.	.	.	.	.
.	8BB\	.	.	.	.	.	.	.	.
.	8AA#X\J	8f##X\ 8cc#\	.	.	(>8cc#\	.	.	.	.
=56	=56	=56	=56	=56	=56	=56	=56	=56	=56
[2E/	8BB\L	4.g#\ 4.dd\	.	.	4.dd\	.	.	.	.
.	8EE\	.	.	.	.	.	.	.	.
.	8BB\	.	.	.	.	.	.	.	.
.	8AA#X\J	8f##X\ 8cc#\	.	.	8cc#\	.	.	.	.
=57	=57	=57	=57	=57	=57	=57	=57	=57	=57
8E/]	8BB\	4.g#\ 4.dd\	.	.	4.dd\)	.	.	.	.
8E\L	4.ryy	.	.	.	.	.	.	.	.
8B\	.	.	.	.	.	.	.	.	.
8A#X\J	.	8f##X\ 8cc#\	.	.	8cc#\	-by	-ben!	.	.
*v	*v	*	*	*	*	*	*	*	*
!!LO:PB:g=original
=58	=58	=58	=58	=58	=58	=58	=58	=58
*>C	*>C	*	*	*>C	*	*	*	*
!!!OMD: un poco piu lento
!!!OMD-mod: Un poco più lento
4BB\ 4F#\ 4B\	4d/ 4f#/ 4dd/	.	.	8dd\	Wte-	2) dann	.	.
.	.	.	.	8cc#\	-dy	du	.	.
4AA\ 4F#\ 4A\	4d/ 4f#/ 4dd/	.	.	8b\	kon-	Ma-	.	.
.	.	.	.	8ff#\	-wa-	-ien	.	.
=59	=59	=59	=59	=59	=59	=59	=59	=59
*2\left	*	*	*	*	*	*	*	*
2GG#\ 2D\ 2G#\	2B/ 2f#/ 2b/	.	.	4ee\	-lij-	blu-	.	.
.	.	.	.	4dd\	-ko	-me,	.	.
=60	=60	=60	=60	=60	=60	=60	=60	=60
*	*^	*	*	*	*	*	*	*
!	!	!LO:TX:t=P:problem=all\middle&colon; global	!	!	!	!	!	!	!
4C#\ 4G#\	8cc#/L	4c#\ 4e#X\	.	.	2r	.	.	.	.
.	8b/J	.	.	.	.	.	.	.	.
8FF#\L 8F#\	8a/L	8c#\L 8f#\	.	.	.	.	.	.	.
8F#\J 8A\	8ee/J	8e#\J 8f#\	.	.	.	.	.	.	.
=61	=61	=61	=61	=61	=61	=61	=61	=61	=61
*	*	*2\left	*	*	*	*	*	*	*
2BB\ 2F#\ 2B\	4dd/	2d\ 2f#\	.	.	8f#/	Już	musst	.	.
.	.	.	.	.	8f#/	nie	du	.	.
.	4cc#/	.	.	.	8f#/	uj-	dich	.	.
.	.	.	.	.	8f#/	-dziesz	er-	.	.
*	*v	*v	*	*	*	*	*	*	*
!!LO:LB:g=original
=62	=62	=62	=62	=62	=62	=62	=62	=62
*	*	*	*	*2\left	*	*	*	*
2BB\ 2B\	4d/ 4f#/ 4cc#/	.	.	[>2cc#\	zgu-	ge-	.	.
.	4d/ 4fn/ 4a/	.	.	.	.	.	.	.
=63	=63	=63	=63	=63	=63	=63	=63	=63
4E\	4d/ 4e/ 4g#/	.	.	2cc#\]	.	.	.	.
4E\ 4d\	4e\ 4g#\ 4ee\	.	.	.	.	.	.	.
=64	=64	=64	=64	=64	=64	=64	=64	=64
8A\ 8c#\	4a~>\ 4cc#\ 4aa\	.	.	4a/	-by	-ben!	.	.
4AA\ 4E\	.	.	.	.	.	.	.	.
!	!	!	!	!LO:TX:b:t=S.Windalewski\n(0.3ajg.85r.):mod=	!	!	!	!
.	4gg#~>\	.	.	4r	.	.	.	.
8E\ 8B\ 8e\	.	.	.	.	.	.	.	.
=65	=65	=65	=65	=65	=65	=65	=65	=65
8r	(>16ee\LL	.	.	2r	.	.	.	.
.	16gg#\	.	.	.	.	.	.	.
4AA\ 4E\	16ff#\	.	.	.	.	.	.	.
.	16dd\JJ	.	.	.	.	.	.	.
.	4cc#\)	.	.	.	.	.	.	.
8E\ 8A\ 8e\	.	.	.	.	.	.	.	.
!!LO:LB:g=original
=66	=66	=66	=66	=66	=66	=66	=66	=66
8r	4ee~>\	.	.	2r	.	.	.	.
4AA\ 4E\	.	.	.	.	.	.	.	.
.	4dd~>\	.	.	.	.	.	.	.
8F#\ 8A\ 8d\	.	.	.	.	.	.	.	.
=67	=67	=67	=67	=67	=67	=67	=67	=67
8r	(>16b\LL	.	.	2r	.	.	.	.
.	16dd\	.	.	.	.	.	.	.
8AA\ 8E\ 8G#\	16cc#\	.	.	.	.	.	.	.
.	16e\JJ	.	.	.	.	.	.	.
8r	4a/)	.	.	.	.	.	.	.
8E\ 8A\ 8c#\	.	.	.	.	.	.	.	.
=68	=68	=68	=68	=68	=68	=68	=68	=68
8D\L	4f#/ 4b/	.	.	2r	.	.	.	.
8A\	.	.	.	.	.	.	.	.
8AA\	4e/ 4cc#/	.	.	.	.	.	.	.
8A\J	.	.	.	.	.	.	.	.
=69	=69	=69	=69	=69	=69	=69	=69	=69
8D\L	4fn/ 4b/	.	.	2r	.	.	.	.
8A\	.	.	.	.	.	.	.	.
8AA\	4e/ 4cc#	.	.	.	.	.	.	.
8A\J	.	.	.	.	.	.	.	.
!!LO:LB:g=original
=70	=70	=70	=70	=70	=70	=70	=70	=70
.	16qqa/LL	.	.	.	.	.	.	.
.	16qqb/JJ	.	.	.	.	.	.	.
2AA\ 2E\	2e/ 2cc#/	.	.	2r	.	.	.	.
=71	=71	=71	=71	=71	=71	=71	=71	=71
.	(>16qqa/LL	.	.	.	.	.	.	.
.	16qqb/JJ	.	.	.	.	.	.	.
!	!	!LO:MO:mod=!null:null	!	!	!	!	!	!
!	!	!LO:DY:t=pp.	!	!	!	!	!	!
2AA\ 2E\	2e/) 2cc#/	pp	.	2r	.	.	.	.
==	==	==	==	==	==	==	==	==
*-	*-	*-	*-	*-	*-	*-	*-	*-
!!LO:MO:ori
!!!system-decoration: g1[(g2)]
!!LO:MO:mod
!! !!!system-decoration: g1{(g2)}
!!LO:MO:end
!!!RDF**kern: N = linked
!!!RDF**kern: > = above
!!!RDF**kern: < = below
!!!ENC: Filip Voros
!!!END: 2021-12-09
!!!EED: Jędrzej Mróz
!!!EEV: 2021-12-20
!!!ENC-modern: Andrzej Borzym
!!!END-modern: 2022-08-30
!!!YEC: Copyright 2022 Narodowy Instytut Fryderyka Chopina (https://polishscores.org)
!!!YEM: License CC-BY-4.0 (https://creativecommons.org/licenses/by/4.0)
